src/pos-icons/purse.svg

<svg height="24" viewBox="0 0 24 24" width="24" xmlns="http://www.w3.org/2000/svg"><path d="m22 19.1-1-8.6a1.65 1.65 0 0 0 -1.7-1.5h-3.3v-4l-2-2h-4l-2 2v4h-3.3a1.65 1.65 0 0 0 -1.7 1.5l-1 8.6a1.74 1.74 0 0 0 1.7 1.9h16.6a1.74 1.74 0 0 0 1.7-1.9m-12-14.1h4v4h-4"/></svg>

<?xml version="1.0" encoding="UTF-8"?><!DOCTYPE svg PUBLIC "-//W3C//DTD SVG 1.1//EN" "http://www.w3.org/Graphics/SVG/1.1/DTD/svg11.dtd"><svg xmlns="http://www.w3.org/2000/svg" xmlns:xlink="http://www.w3.org/1999/xlink" version="1.1" id="mdi-purse" width="24" height="24" viewBox="0 0 24 24"><path d="M22,19.1L21,10.5A1.65,1.65 0 0,0 19.3,9H16V5L14,3H10L8,5V9H4.7A1.65,1.65 0 0,0 3,10.5L2,19.1A1.74,1.74 0 0,0 3.7,21H20.3A1.74,1.74 0 0,0 22,19.1M10,5H14V9H10" /></svg>
